X:1
T:William Billings
T:Modern Musick
%%score [ 1 2 3 4 ]
L:1/8
M:2/2
K:E
V:1 treble nm="Soprano" snm="S"
V:2 alto nm="Alto" snm="A"
V:3 treble-8 nm="Tenor" snm="T"
V:4 bass nm="Bass" snm="B"
V:1
 z8 | z8 | z8 | z8 | z4 z2 G2 | (A2 G2) F2 E2 | B4 c2 e2 | (B2 A2) G2 F2 | G2 E4 G2 | %9
w: ||||To|tic * kle the|Ear is our|pre- * sent in-|ten- tion *|
[M:2/4] BB BB |[M:2/4] B2 BB | BB BB | BB AG | A2 AA | A2 Be | d2 BB | B2 z2 | z2 z B | ee dd | %19
w: ||||||||||
 e3 B | ed cB | B3 B | BG AA | (GA) BB | B2 BB | B2 z2 |[M:2/2] z8 | z8 | z8 | z4 B3 B | %30
w: ||||||||||lt the|
 B2 B2 B2 B2 | B6 B2 | B4 B2 B2 | B4 B2 B2 | B4 B2 B2 | B4 B2 B2 | B4 B4 | B8 |[M:2/4] z2 B2 | %39
w: Tre- ble in the|rear no|long- er for|bear but ex-|press- ly de-|clare for a|fuge a-|way||
 ee ed | e3 e | dd cA | B3 e | B2 B2 | B2 e2 | dd cA | B3 e | B2 B2 | B4 ||[K:G][M:3/2] z4 z4 B4 | %50
w: |||||||||||
 e8 B4 | B8 G4 | (d4 c4) B4 | (e3 d c4) B4 | A8 A4 | B8 A4 | A8 A4 | B8 d4 | (G4 A4) B4 | B8 B4 | %60
w: ||||||||||
 B8 B4 | B8 B4 | B8 A4 | (d3 c B4) A4 | B8 B4 | (B4 c4) B4 | (d3 c B4) A4 | B8 d4 | (d4 c4) B4 | %69
w: |||||||||
 B12 |[K:E][M:6/4] z4 z2 z4 B2 | G2 G2 F2 G2 G2 GA | B2 B2 B2 B4 B2 | B2 B2 (cd) e2 d2 c2 | %74
w: |||||
 B2 B2 B2 B4 B2 | G2 G2 G2 A2 A2 A2 | B2 B2 B2 B4 B2 | B2 B2 B2 c2 B2 B2 | B2 B2 B2 B4 B2 | %79
w: |||||
 c2 c2 c2 c4 B2 | B2 B2 B2 c2 B2 B2 | B2 B2 B2 B6 | z4 z2 z4 G2 | B2 B2 B2 B2 G2 G2 | %84
w: |||||
 A2 A2 A2 A4 B2 | B2 B2 (cd) e2 (ec)(BA) | B2 B2 B2 B4 B2 | G2 G2 F2 G2 G2 (GA) | B2 B2 B2 B4 BB | %89
w: |||||
 A2 c2 A2 G2 B2 G2 | B2 B2 B2 B4 (ed) | c2 c2 c2 c4 BB | B2 A2 G2 c2 B2 B2 | B2 B2 B2 B6 |] %94
w: |||||
V:2
 z8 | z8 | z8 | z8 | z4 z2 z2 | z8 | z8 | z8 | z4 z2 E2 |[M:2/4] GG GF |[M:2/4] G2 GG | GG GG | %12
w: ||||||||||||
 GG FE | F2 FF | F2 FG | B2 GF | G2 z2 | z2 z E | GG FF | G3 E | EE FF | G3 F | GE FF | E2 ED | %24
w: ||||||||||||
 E2 EE | E2 z2 |[M:2/2] z8 | z8 | z4 G2 G2 | G4 G2 G2 | G6 G2 | G4 G2 G2 | G6 G2 | G4 G2 G2 | %34
w: ||||Let the|Count- er in-|spire the|rest of the|choir in-|flam'd with de|
 (G4 F4 | G4) F4 | G4 G4 | G8 |[M:2/4] z2 E2 | GG GF | G3 E | AG FF | G3 F | E2 (ED) | E3 E | %45
w: si *|re to||||||||||
 AG FF | G3 F | E2 (ED) | E4 ||[K:G][M:3/2] z4 z4 E4 | G8 E4 | F8 G4 | (G3 B A4) F4 | (G4 A4) G4 | %54
w: |||||||||
 F8 F4 | G8 E4 | F8 E4 | (F4 G4) F4 | D8 E4 | D8 D4 | D8 E4 | D8 D4 | E8 D4 | G8 A4 | G8 G4 | %65
w: |||||||||||
 (E4 A4) G4 | (F4 G4) A4 | G8 B4 | (B4 A4) F4 | ^G12 |[K:E][M:6/4] z4 z2 z4 E2 | %71
w: ||||||
 E2 E2 F2 E2 E2 E2 | F2 F2 F2 G4 F2 | G2 E2 F2 G2 E2 A2 | F2 E2 D2 E4 E2 | E2 E2 E2 F2 F2 F2 | %76
w: |||||
 F2 F2 F2 G4 G2 | G2 G2 G2 A2 G2 F2 | G2 G2 G2 G4 G2 | A2 A2 A2 A4 G2 | G2 G2 G2 A2 G2 F2 | %81
w: |||||
 G2 G2 G2 G6 | z4 z2 z4 E2 | E2 G2 G2 G2 G2 E2 | F2 F2 F2 F4 F2 | G2 G2 F2 E2 F2 (GD) | %86
w: |||||
 D2 D2 D2 D4 E2 | E2 E2 F2 E2 E2 E2 | F2 F2 F2 G4 GE | E2 F2 F2 E2 E2 E2 | G2 G2 G2 G4 G2 | %91
w: |||||
 A2 A2 A2 A4 G2 | G2 F2 E2 A2 G2 F2 | G2 G2 G2 G6 |] %94
w: |||
V:3
 z4 E2 F2 | G4 G2 A2 | B4 e2 d2 | (c2 B2) A2 G2 | A2 F4 z2 | z8 | z8 | z8 | z4 z2 B2 | %9
w: we are|met for a|Con- cert of|mod * ern in-|ven- tion||||the|
[M:2/4] ee ed |[M:2/4] e2 ee | ee ee | ed cB | c2 cc | c2 de | f2 ed | e2 z2 | z2 z G | BB BB | %19
w: Aud- i- ence- are-|seat- ed ex-|pect- ing to- be|treat- ed with- a|piece- of the|Best with a|piece- of the|best|and|since we all a-|
 B3 G | AB cd | e3 d | eB cA | (BA) GF | G2 EE | E2 z2 |[M:2/2] z2 z2 z4 | z4 B2 B2 | e4 e2 e2 | %29
w: gree to|set the tune on|E the|Auth- ors da- ling|Key * he pre-|fers to the|rest||let the|Te- nor suc-|
 e6 e2 | e4 e2 e2 | e8- | e4 e2 e2 | e4 e2 e2 | (e4 d4 | e4) d4 | e4 e4 | e8 |[M:2/4] z2 B2 | %39
w: ceed and|fol- low the|Le-|ad til the|parts are a-|gree *|d to|fuge a-|way|then|
 BB BB | B3 G | AB cd | (e2 d)c | (BA) (GF) | E3 G | AB cd | (e2 d)c | (BA) (GF) | E4 || %49
w: change to bris- ker|tune and|up the Lad- der|climb * and|down * a *|gain then|mount the se- cond|time * and|end * the s|strain|
[K:G][M:3/2] z4 z4 B4 | B8 G4 | d8 c4 | (B4 e4) d4 | (B4 A4) B4 | d8 d4 | d8 c4 | d8 e4 | %57
w: then|change the|Key to|pen * sive|tones * and|slow in|Tre- ble|time the|
 (d4 c4) (B2 A2) | (B4 A4) G4 | F8 F4 | F8 G4 | F8 F4 | G8 A4 | B8 d4 | e8 e4 | (g4 f4) e4 | %66
w: Notes * ex *|ceed * in|low keep|down a-|while then|rise by|slow de|grees the|pro * cess|
 (f4 e4) d4 | (B4 e4) f4 | (g4 f2 e2) ^d4 | e12 |[K:E][M:6/4] z4 z2 z4 G2 | B2 B2 B2 c2 c2 c2 | %72
w: sure * ly|will * not|fail * * to|please|then|Com- mon and Tre- ble we|
 d2 d2 d2 e4 d2 | e2 B2 A2 G2 B2 e2 | (dc)(BA)(GF) E4 G2 | B2 B2 B2 c2 c2 c2 | d2 d2 d2 e4 d2 | %77
w: joint- ly- have run well|give you their Es- sence com-|poun * ded * in * one all|tho we are strong- ly at-|tach'd to the rest six|
 e2 d2 e2 f2 e2 d2 | e2 e2 e2 e4 e2 | f2 f2 f2 f4 d2 | e2 d2 e2 f2 e2 d2 | e2 e2 e2 e6 | %82
w: four is the move- ment that|pleas- es us best that|pleas- es us best six|four is the move- ment that|pleas- es us best|
 z4 z2 z4 B2 | e2 e2 e2 d2 B2 B2 | c2 c2 c2 c4 d2 | e2 d2 c2 B2 A2 G2 | F2 F2 F2 F4 G2 | %87
w: and|now we ad- dress you as|Friends to the cause per-|for- mers are mod- est and|write their own laws al-|
 B2 B2 B2 c2 c2 c2 | d2 d2 d2 e4 ed | c2 A2 c2 B2 G2 B2 | e2 e2 e2 e4 e2 | f2 f2 f2 f4 ed | %92
w: thou we are san- guine and|Clap at the Bars tis the|part of the hear- ers to|clap their Ap- plause to|clap their Ap- plause tis the|
 e2 d2 e2 f2 e2 d2 | e2 e2 e2 e6 |] %94
w: part of the hear- ers to|clap their Ap- plause|
V:4
 z4 E,2 D,2 | C,4 C,2 C,2 | (B,,2 E,2) E,2 G,2 | (A,2 G,2) F,2 E,2 | F,2 B,,4 E,2 | %5
w: |||||
 (F,2 E,2) D,2 C,2 | B,,4 E,2 A,2 | (G,2 F,2) E,2 B,,2 | E,2 E,4 E,2 |[M:2/4] E,E, E,B,, | %10
w: |||||
[M:2/4] E,2 E,E, | E,E, E,E, | E,G, A,G, | F,2 F,F, | F,2 F,E, | B,2 B,,B,, | E,2 z2 | z2 z E, | %18
w: ||||||||
 E,E, B,,B,, | E,3 E, | E,G, F,B,, | E,3 B,, | E,G, F,F, | (G,F,) E,B,, | E,2 E,E, | E,2 z2 | %26
w: ||||||||
[M:2/2] z4 B,,2 B,,2 | E,4 E,2 E,2 | E,6 E,2 | E,4 E,2 E,2 | E,4 E,2 E,2 | E,4 E,2 E,2 | E,6 E,2 | %33
w: let the|Bass take the|Lead and|firm- ly pro-|ceed till the|parts are a-|greed to|
 E,4 E,4 | (E,4 B,,4 | E,4) B,,4 | E,4 E,4 | E,8 |[M:2/4] z2 E,2 | E,E, E,B,, | E,3 E, | %41
w: sing a-|* wa-|y to||||||
 F,G, A,F, | (E,>F, G,)A, | (G,F,) (E,B,,) | E,3 E, | F,G, A,F, | (E,>F, G,)A, | (G,F,) (E,B,,) | %48
w: |||||||
 E,4 ||[K:G][M:3/2] z4 z4 E,4 | E,8 E,4 | B,,8 E,4 | (G,4 A,4) B,4 | (E,4 F,4) G,4 | D,8 D,4 | %55
w: |||||||
 G,8 A,4 | D,8 C,4 | (B,,4 E,4) D,4 | (G,4 F,4) E,4 | B,,8 B,,4 | B,,8 E,4 | B,,8 B,,4 | E,8 F,4 | %63
w: ||||||||
 G,8 F,4 | E,8 E,4 | (E,4 F,4) G,4 | (B,3 A, G,4) F,4 | (G,3 F, E,4) [B,,B,]4 | %68
w: |||||
 ([G,,G,]4 [A,,A,]4) [B,,B,]4 | E,12 |[K:E][M:6/4] z4 z2 z4 E,2 | E,2 E,2 D,2 C,2 C,2 C,2 | %72
w: ||||
 B,,2 B,,2 B,,2 E,4 B,,2 | E,2 G,2 F,2 E,2 G,2 A,2 | B,2 B,,2 B,,2 E,4 E,2 | %75
w: |||
 E,2 E,2 G,2 F,2 F,2 F,2 | B,,2 B,,2 B,,2 E,4 G,2 | E,2 G,2 E,2 A,2 B,2 B,,2 | %78
w: |||
 E,2 E,2 E,2 E,4 G,2 | F,2 F,2 F,2 F,4 G,2 | E,2 G,2 E,2 A,2 B,2 B,,2 | E,2 E,2 E,2 E,6 | %82
w: ||||
 z4 z2 z4 E,2 | E,2 E,2 E,2 G,2 G,2 G,2 | F,2 F,2 F,2 F,4 B,,2 | E,2 G,2 A,2 G,2 F,2 E,2 | %86
w: ||||
 B,,2 B,,2 B,,2 B,,4 E,2 | E,2 E,2 D,2 C,2 C,2 C,2 | B,,2 B,,2 B,,2 E,4 E,E, | %89
w: |||
 A,2 F,2 F,2 G,2 E,2 E,2 | E,2 E,2 E,2 E,4 G,2 | F,2 F,2 F,2 F,4 G,F, | E,2 F,2 G,2 A,2 B,2 B,,2 | %93
w: ||||
 E,2 E,2 E,2 E,6 |] %94
w: |

